public/assets/img/home1/icon/python-icon.svg

<svg width="24" height="24" viewBox="0 0 24 24" fill="none" xmlns="http://www.w3.org/2000/svg">
<mask id="mask0_1531_62693" style="mask-type:alpha" maskUnits="userSpaceOnUse" x="0" y="0" width="24" height="24">
<rect width="24" height="24" fill="#D9D9D9"/>
</mask>
<g mask="url(#mask0_1531_62693)">
</g>
<g clip-path="url(#clip0_1531_62693)">
<path d="M11.8973 0.0067749C5.81983 0.0067749 6.19929 2.65289 6.19929 2.65289L6.20604 5.39435H12.0056V6.21741H3.90254C3.90254 6.21741 0.0135918 5.77459 0.0135918 11.9313C0.0135918 18.0882 3.40796 17.8698 3.40796 17.8698H5.43371V15.0128C5.43371 15.0128 5.3245 11.6048 8.77389 11.6048H14.526C14.526 11.6048 17.7578 11.6572 17.7578 8.46889V3.19718C17.7578 3.19718 18.2486 0.0067749 11.8973 0.0067749ZM8.69937 1.85035C8.83642 1.85023 8.97214 1.87724 9.09878 1.92984C9.22542 1.98244 9.34049 2.05959 9.4374 2.15689C9.5343 2.25419 9.61115 2.36971 9.66354 2.49686C9.71593 2.62401 9.74283 2.76028 9.74271 2.89788C9.74283 3.03548 9.71593 3.17175 9.66354 3.2989C9.61115 3.42605 9.5343 3.54158 9.4374 3.63887C9.34049 3.73617 9.22542 3.81332 9.09878 3.86592C8.97214 3.91852 8.83642 3.94553 8.69937 3.94541C8.56232 3.94553 8.42659 3.91852 8.29995 3.86592C8.17331 3.81332 8.05825 3.73617 7.96134 3.63887C7.86443 3.54158 7.78759 3.42605 7.7352 3.2989C7.68281 3.17175 7.6559 3.03548 7.65603 2.89788C7.6559 2.76028 7.68281 2.62401 7.7352 2.49686C7.78759 2.36971 7.86443 2.25419 7.96134 2.15689C8.05825 2.05959 8.17331 1.98244 8.29995 1.92984C8.42659 1.87724 8.56232 1.85023 8.69937 1.85035Z" fill="url(#paint0_linear_1531_62693)"/>
<path d="M12.0698 23.9177C18.1473 23.9177 17.7678 21.2716 17.7678 21.2716L17.761 18.5302H11.9614V17.7072H20.0645C20.0645 17.7072 23.9534 18.15 23.9534 11.9931C23.9534 5.83632 20.559 6.05467 20.559 6.05467H18.5333V8.91161C18.5333 8.91161 18.6425 12.3196 15.1931 12.3196H9.44095C9.44095 12.3196 6.20923 12.2672 6.20923 15.4556V20.7274C6.20923 20.7274 5.71849 23.9177 12.0697 23.9177H12.0698ZM15.2677 22.0743C15.1307 22.0745 14.9949 22.0475 14.8683 21.9949C14.7417 21.9423 14.6266 21.8651 14.5297 21.7678C14.4328 21.6705 14.3559 21.555 14.3035 21.4278C14.2512 21.3007 14.2243 21.1644 14.2244 21.0268C14.2242 20.8892 14.2511 20.7529 14.3035 20.6258C14.3559 20.4986 14.4327 20.3831 14.5297 20.2858C14.6266 20.1884 14.7416 20.1113 14.8683 20.0587C14.9949 20.0061 15.1307 19.9791 15.2677 19.9792C15.4048 19.9791 15.5405 20.0061 15.6671 20.0587C15.7938 20.1113 15.9088 20.1884 16.0057 20.2857C16.1027 20.383 16.1795 20.4985 16.2319 20.6257C16.2843 20.7528 16.3112 20.8891 16.3111 21.0267C16.3112 21.1643 16.2843 21.3006 16.2319 21.4277C16.1795 21.5549 16.1027 21.6704 16.0057 21.7677C15.9088 21.865 15.7938 21.9422 15.6671 21.9948C15.5405 22.0474 15.4048 22.0745 15.2677 22.0743Z" fill="url(#paint1_linear_1531_62693)"/>
</g>
<defs>
<linearGradient id="paint0_linear_1531_62693" x1="230.074" y1="215.072" x2="1421.17" y2="1389.56" gradientUnits="userSpaceOnUse">
<stop stop-color="#387EB8"/>
<stop offset="1" stop-color="#366994"/>
</linearGradient>
<linearGradient id="paint1_linear_1531_62693" x1="345.779" y1="373.677" x2="1624.64" y2="1577.79" gradientUnits="userSpaceOnUse">
<stop stop-color="#FFE052"/>
<stop offset="1" stop-color="#FFC331"/>
</linearGradient>
<clipPath id="clip0_1531_62693">
<rect width="24" height="24" fill="white"/>
</clipPath>
</defs>
</svg>

<svg xmlns="http://www.w3.org/2000/svg" width="24" height="24" fill="none" viewBox="0 0 24 24">
    <mask id="a" width="24" height="24" x="0" y="0" maskUnits="userSpaceOnUse" style="mask-type:alpha">
        <path fill="#d9d9d9" d="M0 0h24v24H0z"/>
    </mask>
    <g clip-path="url(#b)">
        <path fill="url(#c)" d="M11.897.007C5.82.007 6.2 2.653 6.2 2.653l.007 2.741h5.8v.823H3.903s-3.89-.442-3.89 5.714 3.395 5.939 3.395 5.939h2.026v-2.857s-.11-3.408 3.34-3.408h5.752s3.232.052 3.232-3.136V3.197s.49-3.19-5.86-3.19M8.7 1.85a1.04 1.04 0 0 1 .965.647 1.05 1.05 0 0 1-.965 1.448 1.04 1.04 0 0 1-.964-.646A1.05 1.05 0 0 1 8.7 1.85"/>
        <path fill="url(#d)" d="M12.07 23.918c6.077 0 5.698-2.646 5.698-2.646l-.007-2.742h-5.8v-.823h8.103s3.89.443 3.89-5.714-3.395-5.938-3.395-5.938h-2.026v2.857s.11 3.408-3.34 3.408H9.441s-3.232-.053-3.232 3.136v5.271s-.49 3.19 5.86 3.19m3.198-1.844a1.04 1.04 0 0 1-.965-.646 1.05 1.05 0 0 1 .565-1.37 1.04 1.04 0 0 1 1.138.228 1.045 1.045 0 0 1 .226 1.142 1.045 1.045 0 0 1-.964.646"/>
    </g>
    <defs>
        <linearGradient id="c" x1="230.074" x2="1421.17" y1="215.072" y2="1389.56" gradientUnits="userSpaceOnUse">
            <stop stop-color="#387eb8"/>
            <stop offset="1" stop-color="#366994"/>
        </linearGradient>
        <linearGradient id="d" x1="345.779" x2="1624.64" y1="373.677" y2="1577.79" gradientUnits="userSpaceOnUse">
            <stop stop-color="#ffe052"/>
            <stop offset="1" stop-color="#ffc331"/>
        </linearGradient>
        <clipPath id="b">
            <path fill="#fff" d="M0 0h24v24H0z"/>
        </clipPath>
    </defs>
</svg>
